src/assets/icons/category_Appliances.svg

<?xml version="1.0" encoding="UTF-8" standalone="no"?>
<svg width="38px" height="38px" viewBox="0 0 38 38" version="1.1" xmlns="http://www.w3.org/2000/svg" xmlns:xlink="http://www.w3.org/1999/xlink">
    <!-- Generator: sketchtool 41.2 (35397) - http://www.bohemiancoding.com/sketch -->
    <title>773E9C8B-EAF0-48E9-8981-8BA270788628</title>
    <desc>Created with sketchtool.</desc>
    <defs></defs>
    <g id="Nav" stroke="none" stroke-width="1" fill="none" fill-rule="evenodd">
        <g id="Nav_Categories" transform="translate(-96.000000, -709.000000)" fill="#AEAEAE">
            <g id="Group-4" transform="translate(96.000000, 709.000000)">
                <path d="M27.7083333,28.46675 C27.7083333,28.9211667 27.338625,29.2916667 26.8834167,29.2916667 L11.1165833,29.2916667 C10.661375,29.2916667 10.2916667,28.9211667 10.2916667,28.46675 L10.2916667,8.74079167 C10.2916667,8.286375 10.661375,7.91666667 11.1165833,7.91666667 L26.8834167,7.91666667 C27.338625,7.91666667 27.7083333,8.286375 27.7083333,8.74079167 L27.7083333,28.46675 Z M26.8834167,6.33333333 L11.1165833,6.33333333 C9.78816667,6.33333333 8.70833333,7.41316667 8.70833333,8.74079167 L8.70833333,28.46675 C8.70833333,29.7832917 9.5,30.853625 11.0833333,30.8710417 L11.0833333,30.875 C11.0833333,31.312 11.438,31.6666667 11.875,31.6666667 L13.4583333,31.6666667 C13.8953333,31.6666667 14.25,31.312 14.25,30.875 L23.75,30.875 C23.75,31.312 24.1046667,31.6666667 24.5416667,31.6666667 L26.125,31.6666667 C26.562,31.6666667 26.9166667,31.312 26.9166667,30.875 C26.9166667,30.8734167 26.915875,30.872625 26.915875,30.8710417 C28.2284583,30.853625 29.2916667,29.7832917 29.2916667,28.46675 L29.2916667,8.74079167 C29.2916667,7.41316667 28.2118333,6.33333333 26.8834167,6.33333333 Z M24.77125,9.7291875 C24.62875,9.87960417 24.5416667,10.0854375 24.5416667,10.2912708 C24.5416667,10.4971042 24.62875,10.7029375 24.77125,10.8533542 C24.9216667,10.9958542 25.1275,11.0829375 25.3333333,11.0829375 C25.5391667,11.0829375 25.745,10.9958542 25.8954167,10.8533542 C26.0379167,10.7029375 26.125,10.4971042 26.125,10.2912708 C26.125,10.0854375 26.0379167,9.87960417 25.8954167,9.7291875 C25.5945833,9.43627083 25.0720833,9.43627083 24.77125,9.7291875 Z M22.9583333,11.0829375 C23.1641667,11.0829375 23.37,10.9958542 23.5204167,10.8533542 C23.6629167,10.7029375 23.75,10.4971042 23.75,10.2912708 C23.75,10.0854375 23.6629167,9.87960417 23.5204167,9.7291875 C23.2275,9.43627083 22.6891667,9.43627083 22.39625,9.7291875 C22.25375,9.87960417 22.1666667,10.0854375 22.1666667,10.2912708 C22.1666667,10.4971042 22.25375,10.7029375 22.39625,10.8533542 C22.5466667,10.9958542 22.7525,11.0829375 22.9583333,11.0829375 Z M20.5833333,11.0829375 C20.7891667,11.0829375 20.995,10.9958542 21.1454167,10.8533542 C21.2879167,10.7029375 21.375,10.4971042 21.375,10.2912708 C21.375,10.0854375 21.2879167,9.87960417 21.1454167,9.7291875 C20.8445833,9.43627083 20.3141667,9.43627083 20.02125,9.7291875 C19.87875,9.87960417 19.7916667,10.0854375 19.7916667,10.2912708 C19.7916667,10.4971042 19.87875,10.7029375 20.02125,10.8533542 C20.1716667,10.9958542 20.3775,11.0829375 20.5833333,11.0829375 Z M12.6666667,11.0829375 L16.625,11.0829375 C17.062,11.0829375 17.4166667,10.7282708 17.4166667,10.2912708 C17.4166667,9.85427083 17.062,9.49960417 16.625,9.49960417 L12.6666667,9.49960417 C12.2296667,9.49960417 11.875,9.85427083 11.875,10.2912708 C11.875,10.7282708 12.2296667,11.0829375 12.6666667,11.0829375 Z M19,26.1246042 C15.9441667,26.1246042 13.4583333,23.6387708 13.4583333,20.5829375 C13.4583333,17.5271042 15.9441667,15.0412708 19,15.0412708 C22.0558333,15.0412708 24.5416667,17.5271042 24.5416667,20.5829375 C24.5416667,23.6387708 22.0558333,26.1246042 19,26.1246042 Z M19,13.4579375 C15.07175,13.4579375 11.875,16.6546875 11.875,20.5829375 C11.875,24.5111875 15.07175,27.7079375 19,27.7079375 C22.92825,27.7079375 26.125,24.5111875 26.125,20.5829375 C26.125,16.6546875 22.92825,13.4579375 19,13.4579375 Z M19,16.6246042 C16.817375,16.6246042 15.0416667,18.4003125 15.0416667,20.5829375 C15.0416667,21.0199375 15.3963333,21.3746042 15.8333333,21.3746042 C16.2703333,21.3746042 16.625,21.0199375 16.625,20.5829375 C16.625,19.2735208 17.6905833,18.2079375 19,18.2079375 C19.437,18.2079375 19.7916667,17.8532708 19.7916667,17.4162708 C19.7916667,16.9792708 19.437,16.6246042 19,16.6246042 Z" id="Combined-Shape"></path>
            </g>
        </g>
    </g>
</svg>

<svg width="38" height="38" viewBox="0 0 38 38" xmlns="http://www.w3.org/2000/svg"><path d="M27.708 28.467c0 .454-.37.825-.825.825H11.117a.826.826 0 0 1-.825-.825V8.74c0-.455.37-.824.825-.824h15.766c.456 0 .825.37.825.824v19.726zm-.825-22.134H11.117a2.41 2.41 0 0 0-2.409 2.408v19.726c0 1.316.792 2.387 2.375 2.404v.004c0 .437.355.792.792.792h1.583a.792.792 0 0 0 .792-.792h9.5c0 .437.355.792.792.792h1.583a.792.792 0 0 0 .792-.792l-.001-.004a2.408 2.408 0 0 0 2.376-2.404V8.74a2.41 2.41 0 0 0-2.409-2.408zM24.771 9.73a.832.832 0 0 0-.23.562c0 .206.088.412.23.562.15.143.357.23.562.23a.832.832 0 0 0 .562-.23.832.832 0 0 0 .23-.562.832.832 0 0 0-.23-.562.829.829 0 0 0-1.124 0zm-1.813 1.354a.832.832 0 0 0 .562-.23.832.832 0 0 0 .23-.562.832.832 0 0 0-.23-.562c-.293-.293-.83-.293-1.124 0a.832.832 0 0 0-.23.562c0 .206.088.412.23.562.15.143.357.23.562.23zm-2.375 0a.832.832 0 0 0 .562-.23.832.832 0 0 0 .23-.562.832.832 0 0 0-.23-.562c-.3-.293-.83-.293-1.124 0a.832.832 0 0 0-.23.562c0 .206.088.412.23.562.15.143.357.23.562.23zm-7.916 0h3.958a.792.792 0 0 0 0-1.583h-3.958a.792.792 0 0 0 0 1.583zM19 26.125a5.548 5.548 0 0 1-5.542-5.542A5.548 5.548 0 0 1 19 15.04a5.548 5.548 0 0 1 5.542 5.542A5.548 5.548 0 0 1 19 26.125zm0-12.667c-3.928 0-7.125 3.197-7.125 7.125s3.197 7.125 7.125 7.125 7.125-3.197 7.125-7.125-3.197-7.125-7.125-7.125zm0 3.167a3.963 3.963 0 0 0-3.958 3.958.792.792 0 0 0 1.583 0A2.378 2.378 0 0 1 19 18.208a.792.792 0 0 0 0-1.583z" fill="#AEAEAE" fill-rule="evenodd"/></svg>
